Newaita-dark/apps/22/preferences-system-splash.svg

<svg height="22" viewBox="0 0 22 22" width="22" xmlns="http://www.w3.org/2000/svg" xmlns:xlink="http://www.w3.org/1999/xlink"><linearGradient id="a" gradientUnits="userSpaceOnUse" x1="10.4603136" x2="10.4603136" y1="19.27333515" y2="20.18292842919"><stop offset="0" stop-opacity=".27451"/><stop offset="1" stop-opacity="0"/></linearGradient><linearGradient id="b"><stop offset="0" stop-opacity=".313726"/><stop offset=".222222" stop-opacity=".27451"/><stop offset="1" stop-opacity="0"/></linearGradient><radialGradient id="c" cx="450.908936" cy="189.579361" gradientTransform="matrix(.00000012 -.0537161 -.0966889 -.00000007 36.749411 43.721791)" gradientUnits="userSpaceOnUse" r="21.166656" xlink:href="#b"/><radialGradient id="d" cx="450.908936" cy="189.579361" gradientTransform="matrix(-.00000012 .0537161 .0966889 .00000007 -14.919199 -5.175142)" gradientUnits="userSpaceOnUse" r="21.166656" xlink:href="#b"/><radialGradient id="e" cx="450.908936" cy="189.579361" gradientTransform="matrix(-.00000012 -.0537161 .0966889 -.00000007 -14.919199 43.721791)" gradientUnits="userSpaceOnUse" r="21.166656" xlink:href="#b"/><radialGradient id="f" cx="450.908936" cy="189.579361" gradientTransform="matrix(.00000012 .0537161 -.0966889 .00000007 36.74941 -5.175142)" gradientUnits="userSpaceOnUse" r="21.166656" xlink:href="#b"/><linearGradient id="g"><stop offset="0" stop-color="#b0bec5"/><stop offset="1" stop-color="#cfd8dc"/></linearGradient><linearGradient id="h" gradientTransform="matrix(.0495506 0 0 .131056 -3.375079 21.433838)" gradientUnits="userSpaceOnUse" x1="306.752655" x2="305.954529" xlink:href="#g" y1="-16.485477" y2="-141.414581"/><linearGradient id="i" gradientUnits="userSpaceOnUse" x1="10.9151166" x2="10.9151166" y1="19.27333515" y2="2.90066025"><stop offset="0" stop-color="#5c6bc0"/><stop offset="1" stop-color="#7986cb"/></linearGradient><linearGradient id="j" gradientUnits="userSpaceOnUse" x1="7.276736" x2="14.553472" xlink:href="#g" y1="11.08698491584" y2="11.08698491584"/><path d="m3.183594 19.324219h15.464844v.859375h-15.464844zm0 0" fill="url(#a)"/><path d="m18.648438 19.273438h1.816406v-.910157h-1.816406zm0 0" fill="url(#c)"/><path d="m3.183594 19.273438h-1.820313v.910156h1.820313zm0 0" fill="url(#d)"/><path d="m3.183594 19.273438h-1.820313v-.910157h1.820313zm0 0" fill="url(#e)"/><path d="m18.648438 19.273438h1.816406v.910156h-1.816406zm0 0" fill="url(#f)"/><path d="m2.273438 2.902344h17.28125c.503906 0 .910156.382812.910156.855468v14.65625c0 .476563-.40625.859376-.910156.859376h-17.28125c-.5 0-.910157-.382813-.910157-.859376v-14.65625c0-.472656.410157-.855468.910157-.855468zm0 0" fill="url(#h)"/><path d="m2.730469 3.808594h16.371093c.25 0 .453126.207031.453126.457031v13.644531c0 .25-.203126.453125-.453126.453125h-16.371093c-.253907 0-.457031-.203125-.457031-.453125v-13.644531c0-.25.203124-.457031.457031-.457031zm0 0" fill="url(#i)"/><path d="m2.273438 2.902344c-.503907 0-.910157.382812-.910157.855468v.230469c0-.476562.40625-.859375.910157-.859375h17.28125c.503906 0 .910156.382813.910156.859375v-.230469c0-.472656-.40625-.855468-.910156-.855468zm0 0" fill="#fff" fill-opacity=".588235"/><path d="m2.273438 19.28125c-.503907 0-.910157-.382812-.910157-.859375v-.230469c0 .476563.40625.859375.910157.859375h17.28125c.503906 0 .910156-.382812.910156-.859375v.230469c0 .476563-.40625.859375-.910156.859375zm0 0" fill-opacity=".235294"/><path d="m52.904039-147.460995h402.143415c11.726153 0 21.179796 8.90824 21.179796 19.90719v341.058339c0 11.08985-9.453643 19.998091-21.179796 19.998091h-402.143415c-11.635253 0-21.179796-8.908241-21.179796-19.998091v-341.058339c0-10.99895 9.544543-19.90719 21.179796-19.90719zm0 0" fill="none" stroke="#212121" stroke-linecap="round" stroke-width="3" transform="matrix(.0429729 0 0 .0429729 0 9.239163)"/><path d="m2.730469 3.867188c-.253907 0-.457031.203124-.457031.453124v.171876c0-.25.203124-.453126.457031-.453126h16.371093c.25 0 .453126.203126.453126.453126v-.171876c0-.25-.203126-.453124-.453126-.453124zm0 0" fill-opacity=".235294"/><path d="m2.730469 18.597656c-.253907 0-.457031-.203125-.457031-.457031v-.171875c0 .253906.203124.457031.457031.457031h16.371093c.25 0 .453126-.203125.453126-.457031v.171875c0 .253906-.203126.457031-.453126.457031zm0 0" fill="#fff" fill-opacity=".588235"/><path d="m63.539387-126.3721h380.96362c5.817626 0 10.544447 4.817722 10.544447 10.635348v317.515133c0 5.817627-4.726821 10.544448-10.544447 10.544448h-380.96362c-5.908527 0-10.635348-4.726821-10.635348-10.544448v-317.515133c0-5.817626 4.726821-10.635348 10.635348-10.635348zm0 0" fill="none" stroke="#212121" stroke-linecap="round" stroke-linejoin="round" stroke-width="3" transform="matrix(.0429729 0 0 .0429729 0 9.239163)"/><path d="m2.730469 3.808594c-.253907 0-.457031.203125-.457031.457031v3.691406c5.078124-.636719 10.378906-.972656 15.828124-.972656.488282 0 .972657.003906 1.453126.007813v-2.726563c0-.253906-.203126-.457031-.453126-.457031zm0 0" fill="#fff" fill-opacity=".078431"/><path d="m10.914062 7.449219c-2.015624 0-3.636718 1.621093-3.636718 3.636719 0 2.015624 1.621094 3.640624 3.636718 3.640624 2.015626 0 3.640626-1.625 3.640626-3.640624 0-2.015626-1.625-3.636719-3.640626-3.636719zm0 1.363281c1.261719 0 2.273438 1.015625 2.273438 2.273438 0 1.261718-1.011719 2.273437-2.273438 2.273437-1.257812 0-2.273437-1.011719-2.273437-2.273437 0-1.257813 1.015625-2.273438 2.273437-2.273438zm0 0" fill="#fafafa" fill-opacity=".196078"/><path d="m10.914062 7.449219c-2.015624 0-3.636718 1.621093-3.636718 3.636719 0 2.015624 1.621094 3.640624 3.636718 3.640624 2.015626 0 3.640626-1.625 3.640626-3.640624h-1.367188c0 1.261718-1.011719 2.273437-2.273438 2.273437-1.257812 0-2.273437-1.011719-2.273437-2.273437 0-1.257813 1.015625-2.273438 2.273437-2.273438zm0 0" fill="url(#j)"/><path d="m10.914062 7.449219c-2.015624 0-3.636718 1.621093-3.636718 3.636719v.113281c.0625-1.960938 1.660156-3.523438 3.636718-3.523438 1.976563 0 3.578126 1.5625 3.636719 3.523438 0-.039063.003907-.074219.003907-.113281 0-2.015626-1.625-3.636719-3.640626-3.636719zm-2.269531 3.75c0 .019531-.003906.039062-.003906.054687v.058594c0 1.261719 1.015625 2.277344 2.273437 2.277344 1.261719 0 2.273438-1.015625 2.273438-2.277344 0-.035156 0-.074219 0-.113281-.058594 1.207031-1.050781 2.160156-2.273438 2.160156-1.222656 0-2.210937-.953125-2.269531-2.160156zm0 0" fill="#fff" fill-opacity=".470588"/><path d="m10.914062 14.953125c-2.015624 0-3.636718-1.625-3.636718-3.640625 0-.035156 0-.074219 0-.113281.0625 1.964843 1.660156 3.527343 3.636718 3.527343 1.976563 0 3.578126-1.5625 3.636719-3.523437 0 .035156.003907.074219.003907.109375 0 2.015625-1.625 3.640625-3.640626 3.640625zm-2.269531-3.753906c0-.015625-.003906-.035157-.003906-.054688s0-.039062 0-.058593c0-1.257813 1.015625-2.273438 2.273437-2.273438 1.261719 0 2.273438 1.015625 2.273438 2.273438v.113281c-.058594-1.203125-1.050781-2.160157-2.273438-2.160157-1.222656 0-2.210937.957032-2.269531 2.160157zm0 0" fill-opacity=".235294"/><path d="m253.975747-41.652917c-46.904612 0-84.628283 37.72367-84.628283 84.628282 0 46.904611 37.723671 84.719182 84.628283 84.719182 46.904611 0 84.719182-37.814571 84.719182-84.719182 0-46.904612-37.814571-84.628282-84.719182-84.628282zm0 31.724243c29.360832 0 52.904038 23.634106 52.904038 52.904039 0 29.360832-23.543206 52.904038-52.904038 52.904038-29.269933 0-52.904039-23.543206-52.904039-52.904038 0-29.269933 23.634106-52.904039 52.904039-52.904039zm0 0" fill="none" stroke="#212121" stroke-width="3" transform="matrix(.0429729 0 0 .0429729 0 9.239163)"/></svg>

<?xml version="1.0" encoding="UTF-8"?>
<svg xmlns="http://www.w3.org/2000/svg" xmlns:xlink="http://www.w3.org/1999/xlink" width="22px" height="22px" viewBox="0 0 22 22" version="1.1">
<defs>
<linearGradient id="linear0" gradientUnits="userSpaceOnUse" x1="254" y1="233.5" x2="254" y2="254.666672" gradientTransform="matrix(0.0429729,0,0,0.0429729,-0.454803,9.239163)">
<stop offset="0" style="stop-color:rgb(0%,0%,0%);stop-opacity:0.27451;"/>
<stop offset="1" style="stop-color:rgb(0%,0%,0%);stop-opacity:0;"/>
</linearGradient>
<radialGradient id="radial0" gradientUnits="userSpaceOnUse" cx="450.908936" cy="189.579361" fx="450.908936" fy="189.579361" r="21.166656" gradientTransform="matrix(0.000000119742,-0.0537161,-0.0966889,-0.0000000698078,36.749411,43.721791)">
<stop offset="0" style="stop-color:rgb(0%,0%,0%);stop-opacity:0.313726;"/>
<stop offset="0.222222" style="stop-color:rgb(0%,0%,0%);stop-opacity:0.27451;"/>
<stop offset="1" style="stop-color:rgb(0%,0%,0%);stop-opacity:0;"/>
</radialGradient>
<radialGradient id="radial1" gradientUnits="userSpaceOnUse" cx="450.908936" cy="189.579361" fx="450.908936" fy="189.579361" r="21.166656" gradientTransform="matrix(-0.000000119742,0.0537161,0.0966889,0.0000000698078,-14.919199,-5.175142)">
<stop offset="0" style="stop-color:rgb(0%,0%,0%);stop-opacity:0.313726;"/>
<stop offset="0.222222" style="stop-color:rgb(0%,0%,0%);stop-opacity:0.27451;"/>
<stop offset="1" style="stop-color:rgb(0%,0%,0%);stop-opacity:0;"/>
</radialGradient>
<radialGradient id="radial2" gradientUnits="userSpaceOnUse" cx="450.908936" cy="189.579361" fx="450.908936" fy="189.579361" r="21.166656" gradientTransform="matrix(-0.000000119742,-0.0537161,0.0966889,-0.0000000698078,-14.919199,43.721791)">
<stop offset="0" style="stop-color:rgb(0%,0%,0%);stop-opacity:0.313726;"/>
<stop offset="0.222222" style="stop-color:rgb(0%,0%,0%);stop-opacity:0.27451;"/>
<stop offset="1" style="stop-color:rgb(0%,0%,0%);stop-opacity:0;"/>
</radialGradient>
<radialGradient id="radial3" gradientUnits="userSpaceOnUse" cx="450.908936" cy="189.579361" fx="450.908936" fy="189.579361" r="21.166656" gradientTransform="matrix(0.000000119742,0.0537161,-0.0966889,0.0000000698078,36.74941,-5.175142)">
<stop offset="0" style="stop-color:rgb(0%,0%,0%);stop-opacity:0.313726;"/>
<stop offset="0.222222" style="stop-color:rgb(0%,0%,0%);stop-opacity:0.27451;"/>
<stop offset="1" style="stop-color:rgb(0%,0%,0%);stop-opacity:0;"/>
</radialGradient>
<linearGradient id="linear1" gradientUnits="userSpaceOnUse" x1="306.752655" y1="-16.485477" x2="305.954529" y2="-141.414581" gradientTransform="matrix(0.0495506,0,0,0.131056,-3.375079,21.433838)">
<stop offset="0" style="stop-color:rgb(69.01961%,74.509805%,77.254903%);stop-opacity:1;"/>
<stop offset="1" style="stop-color:rgb(81.176472%,84.705883%,86.274511%);stop-opacity:1;"/>
</linearGradient>
<linearGradient id="linear2" gradientUnits="userSpaceOnUse" x1="254" y1="233.5" x2="254" y2="-147.5" gradientTransform="matrix(0.0429729,0,0,0.0429729,0,9.239163)">
<stop offset="0" style="stop-color:rgb(36.078432%,41.960785%,75.294119%);stop-opacity:1;"/>
<stop offset="1" style="stop-color:rgb(47.450981%,52.549022%,79.607844%);stop-opacity:1;"/>
</linearGradient>
<linearGradient id="linear3" gradientUnits="userSpaceOnUse" x1="640" y1="975.117188" x2="1280" y2="975.117188" gradientTransform="matrix(0.0113699,0,0,0.0113699,0,0)">
<stop offset="0" style="stop-color:rgb(69.01961%,74.509805%,77.254903%);stop-opacity:1;"/>
<stop offset="1" style="stop-color:rgb(81.176472%,84.705883%,86.274511%);stop-opacity:1;"/>
</linearGradient>
</defs>
<g id="surface1">
<path style=" stroke:none;fill-rule:nonzero;fill:url(#linear0);" d="M 3.183594 19.324219 L 18.648438 19.324219 L 18.648438 20.183594 L 3.183594 20.183594 Z M 3.183594 19.324219 "/>
<path style=" stroke:none;fill-rule:nonzero;fill:url(#radial0);" d="M 18.648438 19.273438 L 20.464844 19.273438 L 20.464844 18.363281 L 18.648438 18.363281 Z M 18.648438 19.273438 "/>
<path style=" stroke:none;fill-rule:nonzero;fill:url(#radial1);" d="M 3.183594 19.273438 L 1.363281 19.273438 L 1.363281 20.183594 L 3.183594 20.183594 Z M 3.183594 19.273438 "/>
<path style=" stroke:none;fill-rule:nonzero;fill:url(#radial2);" d="M 3.183594 19.273438 L 1.363281 19.273438 L 1.363281 18.363281 L 3.183594 18.363281 Z M 3.183594 19.273438 "/>
<path style=" stroke:none;fill-rule:nonzero;fill:url(#radial3);" d="M 18.648438 19.273438 L 20.464844 19.273438 L 20.464844 20.183594 L 18.648438 20.183594 Z M 18.648438 19.273438 "/>
<path style=" stroke:none;fill-rule:nonzero;fill:url(#linear1);" d="M 2.273438 2.902344 L 19.554688 2.902344 C 20.058594 2.902344 20.464844 3.285156 20.464844 3.757812 L 20.464844 18.414062 C 20.464844 18.890625 20.058594 19.273438 19.554688 19.273438 L 2.273438 19.273438 C 1.773438 19.273438 1.363281 18.890625 1.363281 18.414062 L 1.363281 3.757812 C 1.363281 3.285156 1.773438 2.902344 2.273438 2.902344 Z M 2.273438 2.902344 "/>
<path style=" stroke:none;fill-rule:nonzero;fill:url(#linear2);" d="M 2.730469 3.808594 L 19.101562 3.808594 C 19.351562 3.808594 19.554688 4.015625 19.554688 4.265625 L 19.554688 17.910156 C 19.554688 18.160156 19.351562 18.363281 19.101562 18.363281 L 2.730469 18.363281 C 2.476562 18.363281 2.273438 18.160156 2.273438 17.910156 L 2.273438 4.265625 C 2.273438 4.015625 2.476562 3.808594 2.730469 3.808594 Z M 2.730469 3.808594 "/>
<path style=" stroke:none;fill-rule:nonzero;fill:rgb(100%,100%,100%);fill-opacity:0.588235;" d="M 2.273438 2.902344 C 1.769531 2.902344 1.363281 3.285156 1.363281 3.757812 L 1.363281 3.988281 C 1.363281 3.511719 1.769531 3.128906 2.273438 3.128906 L 19.554688 3.128906 C 20.058594 3.128906 20.464844 3.511719 20.464844 3.988281 L 20.464844 3.757812 C 20.464844 3.285156 20.058594 2.902344 19.554688 2.902344 Z M 2.273438 2.902344 "/>
<path style=" stroke:none;fill-rule:nonzero;fill:rgb(0%,0%,0%);fill-opacity:0.235294;" d="M 2.273438 19.28125 C 1.769531 19.28125 1.363281 18.898438 1.363281 18.421875 L 1.363281 18.191406 C 1.363281 18.667969 1.769531 19.050781 2.273438 19.050781 L 19.554688 19.050781 C 20.058594 19.050781 20.464844 18.667969 20.464844 18.191406 L 20.464844 18.421875 C 20.464844 18.898438 20.058594 19.28125 19.554688 19.28125 Z M 2.273438 19.28125 "/>
<path style="fill:none;stroke-width:3;stroke-linecap:round;stroke-linejoin:miter;stroke:rgb(12.941177%,12.941177%,12.941177%);stroke-opacity:1;stroke-miterlimit:4;" d="M 52.904039 -147.460995 L 455.047454 -147.460995 C 466.773607 -147.460995 476.22725 -138.552755 476.22725 -127.553805 L 476.22725 213.504534 C 476.22725 224.594384 466.773607 233.502625 455.047454 233.502625 L 52.904039 233.502625 C 41.268786 233.502625 31.724243 224.594384 31.724243 213.504534 L 31.724243 -127.553805 C 31.724243 -138.552755 41.268786 -147.460995 52.904039 -147.460995 Z M 52.904039 -147.460995 " transform="matrix(0.0429729,0,0,0.0429729,0,9.239163)"/>
<path style=" stroke:none;fill-rule:nonzero;fill:rgb(0%,0%,0%);fill-opacity:0.235294;" d="M 2.730469 3.867188 C 2.476562 3.867188 2.273438 4.070312 2.273438 4.320312 L 2.273438 4.492188 C 2.273438 4.242188 2.476562 4.039062 2.730469 4.039062 L 19.101562 4.039062 C 19.351562 4.039062 19.554688 4.242188 19.554688 4.492188 L 19.554688 4.320312 C 19.554688 4.070312 19.351562 3.867188 19.101562 3.867188 Z M 2.730469 3.867188 "/>
<path style=" stroke:none;fill-rule:nonzero;fill:rgb(100%,100%,100%);fill-opacity:0.588235;" d="M 2.730469 18.597656 C 2.476562 18.597656 2.273438 18.394531 2.273438 18.140625 L 2.273438 17.96875 C 2.273438 18.222656 2.476562 18.425781 2.730469 18.425781 L 19.101562 18.425781 C 19.351562 18.425781 19.554688 18.222656 19.554688 17.96875 L 19.554688 18.140625 C 19.554688 18.394531 19.351562 18.597656 19.101562 18.597656 Z M 2.730469 18.597656 "/>
<path style="fill:none;stroke-width:3;stroke-linecap:round;stroke-linejoin:round;stroke:rgb(12.941177%,12.941177%,12.941177%);stroke-opacity:1;stroke-miterlimit:4;" d="M 63.539387 -126.3721 L 444.503007 -126.3721 C 450.320633 -126.3721 455.047454 -121.554378 455.047454 -115.736752 L 455.047454 201.778381 C 455.047454 207.596008 450.320633 212.322829 444.503007 212.322829 L 63.539387 212.322829 C 57.63086 212.322829 52.904039 207.596008 52.904039 201.778381 L 52.904039 -115.736752 C 52.904039 -121.554378 57.63086 -126.3721 63.539387 -126.3721 Z M 63.539387 -126.3721 " transform="matrix(0.0429729,0,0,0.0429729,0,9.239163)"/>
<path style=" stroke:none;fill-rule:nonzero;fill:rgb(100%,100%,100%);fill-opacity:0.0784314;" d="M 2.730469 3.808594 C 2.476562 3.808594 2.273438 4.011719 2.273438 4.265625 L 2.273438 7.957031 C 7.351562 7.320312 12.652344 6.984375 18.101562 6.984375 C 18.589844 6.984375 19.074219 6.988281 19.554688 6.992188 L 19.554688 4.265625 C 19.554688 4.011719 19.351562 3.808594 19.101562 3.808594 Z M 2.730469 3.808594 "/>
<path style=" stroke:none;fill-rule:nonzero;fill:rgb(98.039216%,98.039216%,98.039216%);fill-opacity:0.196078;" d="M 10.914062 7.449219 C 8.898438 7.449219 7.277344 9.070312 7.277344 11.085938 C 7.277344 13.101562 8.898438 14.726562 10.914062 14.726562 C 12.929688 14.726562 14.554688 13.101562 14.554688 11.085938 C 14.554688 9.070312 12.929688 7.449219 10.914062 7.449219 Z M 10.914062 8.8125 C 12.175781 8.8125 13.1875 9.828125 13.1875 11.085938 C 13.1875 12.347656 12.175781 13.359375 10.914062 13.359375 C 9.65625 13.359375 8.640625 12.347656 8.640625 11.085938 C 8.640625 9.828125 9.65625 8.8125 10.914062 8.8125 Z M 10.914062 8.8125 "/>
<path style=" stroke:none;fill-rule:nonzero;fill:url(#linear3);" d="M 10.914062 7.449219 C 8.898438 7.449219 7.277344 9.070312 7.277344 11.085938 C 7.277344 13.101562 8.898438 14.726562 10.914062 14.726562 C 12.929688 14.726562 14.554688 13.101562 14.554688 11.085938 L 13.1875 11.085938 C 13.1875 12.347656 12.175781 13.359375 10.914062 13.359375 C 9.65625 13.359375 8.640625 12.347656 8.640625 11.085938 C 8.640625 9.828125 9.65625 8.8125 10.914062 8.8125 Z M 10.914062 7.449219 "/>
<path style=" stroke:none;fill-rule:nonzero;fill:rgb(100%,100%,100%);fill-opacity:0.470588;" d="M 10.914062 7.449219 C 8.898438 7.449219 7.277344 9.070312 7.277344 11.085938 C 7.277344 11.125 7.277344 11.164062 7.277344 11.199219 C 7.339844 9.238281 8.9375 7.675781 10.914062 7.675781 C 12.890625 7.675781 14.492188 9.238281 14.550781 11.199219 C 14.550781 11.160156 14.554688 11.125 14.554688 11.085938 C 14.554688 9.070312 12.929688 7.449219 10.914062 7.449219 Z M 8.644531 11.199219 C 8.644531 11.21875 8.640625 11.238281 8.640625 11.253906 C 8.640625 11.273438 8.640625 11.292969 8.640625 11.3125 C 8.640625 12.574219 9.65625 13.589844 10.914062 13.589844 C 12.175781 13.589844 13.1875 12.574219 13.1875 11.3125 C 13.1875 11.277344 13.1875 11.238281 13.1875 11.199219 C 13.128906 12.40625 12.136719 13.359375 10.914062 13.359375 C 9.691406 13.359375 8.703125 12.40625 8.644531 11.199219 Z M 8.644531 11.199219 "/>
<path style=" stroke:none;fill-rule:nonzero;fill:rgb(0%,0%,0%);fill-opacity:0.235294;" d="M 10.914062 14.953125 C 8.898438 14.953125 7.277344 13.328125 7.277344 11.3125 C 7.277344 11.277344 7.277344 11.238281 7.277344 11.199219 C 7.339844 13.164062 8.9375 14.726562 10.914062 14.726562 C 12.890625 14.726562 14.492188 13.164062 14.550781 11.203125 C 14.550781 11.238281 14.554688 11.277344 14.554688 11.3125 C 14.554688 13.328125 12.929688 14.953125 10.914062 14.953125 Z M 8.644531 11.199219 C 8.644531 11.183594 8.640625 11.164062 8.640625 11.144531 C 8.640625 11.125 8.640625 11.105469 8.640625 11.085938 C 8.640625 9.828125 9.65625 8.8125 10.914062 8.8125 C 12.175781 8.8125 13.1875 9.828125 13.1875 11.085938 C 13.1875 11.125 13.1875 11.164062 13.1875 11.199219 C 13.128906 9.996094 12.136719 9.039062 10.914062 9.039062 C 9.691406 9.039062 8.703125 9.996094 8.644531 11.199219 Z M 8.644531 11.199219 "/>
<path style="fill:none;stroke-width:3;stroke-linecap:butt;stroke-linejoin:miter;stroke:rgb(12.941177%,12.941177%,12.941177%);stroke-opacity:1;stroke-miterlimit:4;" d="M 253.975747 -41.652917 C 207.071135 -41.652917 169.347464 -3.929247 169.347464 42.975365 C 169.347464 89.879976 207.071135 127.694547 253.975747 127.694547 C 300.880358 127.694547 338.694929 89.879976 338.694929 42.975365 C 338.694929 -3.929247 300.880358 -41.652917 253.975747 -41.652917 Z M 253.975747 -9.928674 C 283.336579 -9.928674 306.879785 13.705432 306.879785 42.975365 C 306.879785 72.336197 283.336579 95.879403 253.975747 95.879403 C 224.705814 95.879403 201.071708 72.336197 201.071708 42.975365 C 201.071708 13.705432 224.705814 -9.928674 253.975747 -9.928674 Z M 253.975747 -9.928674 " transform="matrix(0.0429729,0,0,0.0429729,0,9.239163)"/>
</g>
</svg>
